src/components/00-materials/images-raw/Food Poisoning.svg

<svg width="96" height="96" viewBox="0 0 96 96" fill="none" xmlns="http://www.w3.org/2000/svg">
<path d="M21.03 43.5699L17.6 46.9999M17.6 43.5699L21.03 46.9999M34.21 41.7999C33.4829 43.4831 33.1053 45.2964 33.1 47.1299C33.1163 49.3072 33.6402 51.4506 34.63 53.3899M41 39.8599C39.3877 44.9125 39.5358 50.3623 41.42 55.3199M75.92 47.6499C81.8779 41.9841 86.9361 35.4421 90.92 28.2499V28.1499C89.8513 34.1984 89.2429 40.3193 89.1 46.4599C89.0981 53.6321 89.734 60.7903 91 67.8499C87.0943 60.3482 82.002 53.5269 75.92 47.6499ZM24.78 35.1099C25.8249 39.2077 26.349 43.421 26.34 47.6499C26.3496 51.8822 25.8255 56.0988 24.78 60.1999C17.3706 57.4679 10.6278 53.1898 5 47.6499C10.6431 42.1317 17.3817 37.8596 24.78 35.1099Z" stroke="#00008F" stroke-width="2" stroke-linecap="round" stroke-linejoin="round"/>
<path d="M47.77 37.9199C46.1589 44.2826 46.304 50.9632 48.19 57.2499" stroke="#00008F" stroke-width="2" stroke-linecap="round" stroke-linejoin="round"/>
<path d="M54.55 37C52.9572 43.9998 53.1118 51.284 55 58.21" stroke="#00008F" stroke-width="2" stroke-linecap="round" stroke-linejoin="round"/>
<path d="M61.34 35C60.5943 38.8081 60.2193 42.6795 60.22 46.56C60.2206 51.123 60.7338 55.6716 61.75 60.12" stroke="#00008F" stroke-width="2" stroke-linecap="round" stroke-linejoin="round"/>
<path d="M68.12 37.4399C67.3775 40.4978 67.0015 43.6332 67 46.7799C67.0002 50.4825 67.5117 54.1673 68.52 57.7299" stroke="#00008F" stroke-width="2" stroke-linecap="round" stroke-linejoin="round"/>
<path d="M27.07 47.6099H76.19" stroke="#00008F" stroke-width="2" stroke-linecap="round" stroke-linejoin="round"/>
</svg>

<svg width="96" height="96" viewBox="0 0 96 96" fill="none" xmlns="http://www.w3.org/2000/svg"><path d="M21.03 43.57L17.6 47m0-3.43L21.03 47m13.18-5.2a13.54 13.54 0 00-1.11 5.33 14 14 0 001.53 6.26M41 39.86a23.45 23.45 0 00.42 15.46m34.5-7.67a80.8 80.8 0 0015-19.4v-.1a121.477 121.477 0 00-1.82 18.31c-.002 7.172.634 14.33 1.9 21.39a78.501 78.501 0 00-15.08-20.2zM24.78 35.11a50.319 50.319 0 011.56 12.54 50.341 50.341 0 01-1.56 12.55A55.63 55.63 0 015 47.65a56.39 56.39 0 0119.78-12.54zM47.77 37.92a36.28 36.28 0 00.42 19.33M54.55 37A43.74 43.74 0 0055 58.21M61.34 35a60.099 60.099 0 00-1.12 11.56c0 4.563.514 9.112 1.53 13.56M68.12 37.44A39.664 39.664 0 0067 46.78c0 3.703.512 7.387 1.52 10.95M27.07 47.61h49.12" stroke="#00008F" stroke-width="2" stroke-linecap="round" stroke-linejoin="round"/></svg>
